src/icons/svg/operate-log.svg

<svg width="40px" height="40px" viewBox="0 0 40 40" version="1.1" xmlns="http://www.w3.org/2000/svg"
>
    <path d="M31.9101507,12.3411584 L18.085947,12.3411584 C17.2776938,12.3411584 16.6226038,11.7325297 16.6226038,10.9816006 C16.6226038,10.2306716 17.2776938,9.62204298 18.085947,9.62204298 L31.9096629,9.62204298 C32.7179162,9.62204298 33.3730062,10.2306716 33.3730062,10.9816006 C33.3730062,11.7325297 32.7179162,12.3411584 31.9096629,12.3411584 L31.9101507,12.3411584 Z M33.373494,20.0058914 C33.373494,19.2549624 32.718404,18.6463337 31.9101507,18.6463337 L18.085947,18.6463337 C17.2776938,18.6463337 16.6226038,19.2549624 16.6226038,20.0058914 C16.6226038,20.7568204 17.2776938,21.3654491 18.085947,21.3654491 L31.9096629,21.3654491 C32.7179162,21.3654491 33.3730062,20.7568204 33.3730062,20.0058914 L33.373494,20.0058914 Z M33.373494,29.0301822 C33.373494,28.2792531 32.718404,27.6706245 31.9101507,27.6706245 L18.085947,27.6706245 C17.2776938,27.6706245 16.6226038,28.2792531 16.6226038,29.0301822 C16.6226038,29.7811112 17.2776938,30.3897398 18.085947,30.3897398 L31.9096629,30.3897398 C32.7179162,30.3897398 33.3730062,29.7811112 33.3730062,29.0301822 L33.373494,29.0301822 Z M8.1537486,10.9816006 C8.1537486,10.2306716 7.4986586,9.62204298 6.69040535,9.62204298 L1.46334325,9.62204298 C0.655089996,9.62204298 0,10.2306716 0,10.9816006 C0,11.7325297 0.655089996,12.3411584 1.46334325,12.3411584 L6.69040535,12.3411584 C7.4986586,12.3411584 8.1537486,11.7325297 8.1537486,10.9816006 Z M8.1537486,29.029729 C8.1537486,28.2787999 7.4986586,27.6701713 6.69040535,27.6701713 L1.46334325,27.6701713 C0.655089996,27.6701713 0,28.2787999 0,29.029729 C0,29.780658 0.655089996,30.3892866 1.46334325,30.3892866 L6.69040535,30.3892866 C7.4986586,30.3892866 8.1537486,29.780658 8.1537486,29.029729 Z M2.72669626,26.3106136 L5.65338276,26.3106136 L5.65338276,13.700716 L2.72669626,13.700716 L2.72669626,26.3106136 Z M34.8914687,0 L7.83522755,0 C5.01829179,0 2.72669626,2.12906734 2.72669626,4.7462159 L2.72669626,8.26248527 L5.65338276,8.26248527 L5.65338276,4.7462159 C5.65338276,3.62865948 6.63187162,2.71911538 7.83522755,2.71911538 L34.8914687,2.71911538 C36.0943369,2.71911538 37.0733135,3.62820629 37.0733135,4.7462159 L37.0733135,35.2537841 C37.0733135,36.3713405 36.0948246,37.2808846 34.8914687,37.2808846 L7.83522755,37.2808846 C6.6323594,37.2808846 5.65338276,36.3717937 5.65338276,35.2537841 L5.65338276,31.7488444 L2.72669626,31.7488444 L2.72669626,35.2537841 C2.72669626,37.8709327 5.01829179,40 7.83522755,40 L34.8914687,40 C37.7084045,40 40,37.8709327 40,35.2537841 L40,4.7462159 C40,2.12906734 37.7084045,0 34.8914687,0 L34.8914687,0 Z"
          id="形状"></path>
</svg>

<svg width="40" height="40" xmlns="http://www.w3.org/2000/svg"><path d="M31.91 12.341H18.086c-.808 0-1.463-.608-1.463-1.36 0-.75.655-1.359 1.463-1.359H31.91c.808 0 1.463.609 1.463 1.36 0 .75-.655 1.36-1.463 1.36zm1.463 7.665c0-.751-.655-1.36-1.463-1.36H18.086c-.808 0-1.463.609-1.463 1.36 0 .75.655 1.36 1.463 1.36H31.91c.808 0 1.463-.61 1.463-1.36zm0 9.024c0-.75-.655-1.36-1.463-1.36H18.086c-.808 0-1.463.61-1.463 1.36 0 .751.655 1.36 1.463 1.36H31.91c.808 0 1.463-.609 1.463-1.36zM8.153 10.982c0-.751-.654-1.36-1.463-1.36H1.463c-.808 0-1.463.609-1.463 1.36 0 .75.655 1.36 1.463 1.36H6.69c.809 0 1.464-.61 1.464-1.36zm0 18.048c0-.751-.654-1.36-1.463-1.36H1.463C.655 27.67 0 28.28 0 29.03c0 .75.655 1.36 1.463 1.36H6.69c.809 0 1.464-.61 1.464-1.36zm-5.426-2.72h2.926V13.7H2.727v12.61zM34.89 0H7.835C5.018 0 2.727 2.13 2.727 4.746v3.516h2.926V4.746c0-1.117.979-2.027 2.182-2.027h27.056c1.203 0 2.182.91 2.182 2.027v30.508c0 1.117-.978 2.027-2.182 2.027H7.835c-1.203 0-2.182-.91-2.182-2.027v-3.505H2.727v3.505C2.727 37.87 5.018 40 7.835 40h27.056C37.708 40 40 37.87 40 35.254V4.746C40 2.13 37.708 0 34.891 0z"/></svg>
